symbols/default/34.svg

<svg xmlns="http://www.w3.org/2000/svg" fill="none" viewBox="0 0 100 100">
  <g clip-path="url(#a)">
    <path fill="#999" fill-rule="evenodd" d="M57.7 23c11.7 0 21.7 8.6 23.6 19.9C87.5 44.5 92 50.2 92 56.8c0 7.9-6.5 14.3-14.4 14.3H61.363c-.406-1.049-1.097-1.815-2.163-2.3l-4-1.7 2.2-12.3c.4-1.9-.8-3.8-2.6-4.5-.4-.2-.8-.3-1.2-.3-1.4 0-2.8.8-3.5 2.1l-10.328 19H21.9c-3.9 0-7.6-1.5-10.3-4.2-2.9-2.7-4.5-6.4-4.6-10.5v-.2c0-3.8 1.5-7.4 4.2-10.2 2.8-2.9 6.6-4.5 10.7-4.5.6 0 1.1 0 1.7.1 1.4-3.7 5-6.2 9.2-6.2 1.2 0 2.4.2 3.6.7 4-8 12.2-13.1 21.3-13.1Z" clip-rule="evenodd"/>
    <path fill="url(#b)" fill-rule="evenodd" d="M57.7 23c11.7 0 21.7 8.6 23.6 19.9C87.5 44.5 92 50.2 92 56.8c0 7.9-6.5 14.3-14.4 14.3H61.363c-.406-1.049-1.097-1.815-2.163-2.3l-4-1.7 2.2-12.3c.4-1.9-.8-3.8-2.6-4.5-.4-.2-.8-.3-1.2-.3-1.4 0-2.8.8-3.5 2.1l-10.328 19H21.9c-3.9 0-7.6-1.5-10.3-4.2-2.9-2.7-4.5-6.4-4.6-10.5v-.2c0-3.8 1.5-7.4 4.2-10.2 2.8-2.9 6.6-4.5 10.7-4.5.6 0 1.1 0 1.7.1 1.4-3.7 5-6.2 9.2-6.2 1.2 0 2.4.2 3.6.7 4-8 12.2-13.1 21.3-13.1Z" clip-rule="evenodd" opacity=".6" style="mix-blend-mode:multiply"/>
    <g filter="url(#c)" opacity=".3" style="mix-blend-mode:multiply">
      <path fill="#B6B6B6" fill-rule="evenodd" d="M44.073 63.187c-6.589.45-13.618.813-14.573.813-6.5 0-11 5.1-11 5.1h22.359l3.214-5.913Zm12.412-3.27L57.4 54.8c.051-.243.076-.486.077-.727.648-.239 1.17-.47 1.17-.47s4.352-1.602 5.103-1.602c.75 0 .374-2.963.14-4.81l-.14-1.32c0-.362-.448-.885-1-1.53-.777-.908-1.762-2.057-2-3.34-.175-.94.026-2.082.172-2.91.091-.516.16-.91.104-1.058.112.053.922.327.922.327 1.948.66 5.03 1.74 7.802 3.64 1.658 1.138 3.941 3.314 3.941 3.314s1.645 1.272 2.059 1.687c1 1 4 4 6 4h5L89 51.59l.5 3.21c0 7.9-6.5 14.3-14.4 14.3H59.758c-.173-.11-.36-.21-.558-.301l-4-1.7.926-5.178c.556-.355.562-1.108.359-2.004Zm4.505-22.916c.014-.004.026.007.036.032 0 0-.05-.029-.036-.032Z" clip-rule="evenodd"/>
    </g>
    <path fill="#FF9D00" fill-rule="evenodd" d="M50.8 69.4 53.6 54 43 73.5l7.1 3L45.5 94l12.2-21.6-6.9-3Z" clip-rule="evenodd"/>
    <path fill="#00B8F1" d="M39.7 92.5h-2.8l1.4-2.5c.4-.6.2-1.5-.5-1.8-.7-.4-1.5-.2-1.9.5l-1.4 2.4-1.4-2.4c-.4-.7-1.2-.9-1.8-.5-.4.2-.6.5-.7.8-.1.3 0 .7.1 1l1.4 2.4h-2.7c-.8.1-1.4.7-1.4 1.4s.6 1.4 1.4 1.4h2.8l-1.4 2.4c-.2.3-.2.7-.1 1 .1.3.3.6.6.8.6.4 1.5.1 1.8-.5l1.4-2.4 1.4 2.5c.2.4.7.7 1.2.7.2 0 .5-.1.7-.2.6-.4.9-1.2.5-1.8l-1.4-2.5h2.8c.7 0 1.4-.6 1.4-1.4 0-.8-.7-1.3-1.4-1.3ZM81.7 92.5h-2.8l1.4-2.5c.4-.6.2-1.5-.5-1.8-.7-.4-1.5-.2-1.9.5l-1.4 2.4-1.4-2.4c-.4-.7-1.2-.9-1.8-.5-.4.2-.6.5-.7.8-.1.3 0 .7.1 1l1.4 2.4h-2.7c-.8.1-1.4.7-1.4 1.4s.6 1.4 1.4 1.4h2.8l-1.4 2.4c-.2.3-.2.7-.1 1 .1.3.3.6.6.8.6.4 1.5.1 1.8-.5l1.4-2.4 1.4 2.5c.2.4.7.7 1.2.7.2 0 .5-.1.7-.2.6-.4.9-1.2.5-1.8l-1.4-2.5h2.8c.7 0 1.4-.6 1.4-1.4 0-.8-.7-1.3-1.4-1.3ZM24.7 83.5h-2.8l1.4-2.5c.4-.6.2-1.5-.5-1.8-.7-.4-1.5-.2-1.9.5l-1.4 2.4-1.4-2.4c-.4-.7-1.2-.9-1.8-.5-.4.2-.6.5-.7.8-.1.3 0 .7.1 1l1.4 2.4h-2.7c-.8.1-1.4.7-1.4 1.4s.6 1.4 1.4 1.4h2.8l-1.4 2.4c-.2.3-.2.7-.1 1 .1.3.3.6.6.8.6.4 1.5.1 1.8-.5l1.4-2.4 1.4 2.5c.2.4.7.7 1.2.7.2 0 .5-.1.7-.2.6-.4.9-1.2.5-1.8l-1.4-2.5h2.8c.7 0 1.4-.6 1.4-1.4 0-.8-.7-1.3-1.4-1.3ZM94.7 83.5h-2.8l1.4-2.5c.4-.6.2-1.5-.5-1.8-.7-.4-1.5-.2-1.9.5l-1.4 2.4-1.4-2.4c-.4-.7-1.2-.9-1.8-.5-.4.2-.6.5-.7.8-.1.3 0 .7.1 1l1.4 2.4h-2.7c-.8.1-1.4.7-1.4 1.4s.6 1.4 1.4 1.4h2.8l-1.4 2.4c-.2.3-.2.7-.1 1 .1.3.3.6.6.8.6.4 1.5.1 1.8-.5l1.4-2.4 1.4 2.5c.2.4.7.7 1.2.7.2 0 .5-.1.7-.2.6-.4.9-1.2.5-1.8l-1.4-2.5h2.8c.7 0 1.4-.6 1.4-1.4 0-.8-.7-1.3-1.4-1.3ZM66.7 83.5h-2.8l1.4-2.5c.4-.6.2-1.5-.5-1.8-.7-.4-1.5-.2-1.9.5l-1.4 2.4-1.4-2.4c-.4-.7-1.2-.9-1.8-.5-.4.2-.6.5-.7.8-.1.3 0 .7.1 1l1.4 2.4h-2.7c-.8.1-1.4.7-1.4 1.4s.6 1.4 1.4 1.4h2.8l-1.4 2.4c-.2.3-.2.7-.1 1 .1.3.3.6.6.8.6.4 1.5.1 1.8-.5l1.4-2.4 1.4 2.5c.2.4.7.7 1.2.7.2 0 .5-.1.7-.2.6-.4.9-1.2.5-1.8l-1.4-2.5h2.8c.7 0 1.4-.6 1.4-1.4 0-.8-.7-1.3-1.4-1.3Z"/>
  </g>
  <defs>
    <linearGradient id="b" x1="47.5" x2="49.5" y1="38.5" y2="71.1" gradientUnits="userSpaceOnUse">
      <stop offset=".484" stop-color="#fff" stop-opacity="0"/>
      <stop offset="1" stop-color="#B3B2B2"/>
    </linearGradient>
    <clipPath id="a">
      <path fill="#fff" d="M0 0h100v100H0z"/>
    </clipPath>
    <filter id="c" width="85" height="46.101" x="11.5" y="30" color-interpolation-filters="sRGB" filterUnits="userSpaceOnUse">
      <feFlood flood-opacity="0" result="BackgroundImageFix"/>
      <feBlend in="SourceGraphic" in2="BackgroundImageFix" result="shape"/>
      <feGaussianBlur result="effect1_foregroundBlur_149_1438" stdDeviation="3.5"/>
    </filter>
  </defs>
</svg>

<svg width="100" height="100" viewBox="0 0 100 100" fill="none" xmlns="http://www.w3.org/2000/svg">
<g clip-path="url(#clip0_149_1438)">
<path fill-rule="evenodd" clip-rule="evenodd" d="M57.7 23C69.4 23 79.4 31.6 81.3 42.9C87.5 44.5 92 50.2 92 56.8C92 64.7 85.5 71.1 77.6 71.1H61.3625C60.9568 70.0514 60.2664 69.2847 59.2 68.8L55.2 67.1L57.4 54.8C57.8 52.9 56.6 51 54.8 50.3C54.4 50.1 54 50 53.6 50C52.2 50 50.8 50.8 50.1 52.1L39.7718 71.1H21.9C18 71.1 14.3 69.6 11.6 66.9C8.7 64.2 7.1 60.5 7 56.4V56.2C7 52.4 8.5 48.8 11.2 46C14 43.1 17.8 41.5 21.9 41.5C22.5 41.5 23 41.5 23.6 41.6C25 37.9 28.6 35.4 32.8 35.4C34 35.4 35.2 35.6 36.4 36.1C40.4 28.1 48.6 23 57.7 23Z" fill="#999999"/>
<g opacity="0.6">
<path fill-rule="evenodd" clip-rule="evenodd" d="M57.7 23C69.4 23 79.4 31.6 81.3 42.9C87.5 44.5 92 50.2 92 56.8C92 64.7 85.5 71.1 77.6 71.1H61.3625C60.9568 70.0514 60.2664 69.2847 59.2 68.8L55.2 67.1L57.4 54.8C57.8 52.9 56.6 51 54.8 50.3C54.4 50.1 54 50 53.6 50C52.2 50 50.8 50.8 50.1 52.1L39.7718 71.1H21.9C18 71.1 14.3 69.6 11.6 66.9C8.7 64.2 7.1 60.5 7 56.4V56.2C7 52.4 8.5 48.8 11.2 46C14 43.1 17.8 41.5 21.9 41.5C22.5 41.5 23 41.5 23.6 41.6C25 37.9 28.6 35.4 32.8 35.4C34 35.4 35.2 35.6 36.4 36.1C40.4 28.1 48.6 23 57.7 23Z" fill="url(#paint0_linear_149_1438)" style="mix-blend-mode:multiply"/>
</g>
<path fill-rule="evenodd" clip-rule="evenodd" d="M50.8 69.4L53.6 54L43 73.5L50.1 76.5L45.5 94L57.7 72.4L50.8 69.4Z" fill="#FF9D00"/>
<path d="M39.7 92.5H36.9L38.3 90C38.7 89.4 38.5 88.5 37.8 88.2C37.1 87.8 36.3 88 35.9 88.7L34.5 91.1L33.1 88.7C32.7 88 31.9 87.8 31.3 88.2C30.9 88.4 30.7 88.7 30.6 89C30.5 89.3 30.6 89.7 30.7 90L32.1 92.4H29.4C28.6 92.5 28 93.1 28 93.8C28 94.5 28.6 95.2 29.4 95.2H32.2L30.8 97.6C30.6 97.9 30.6 98.3 30.7 98.6C30.8 98.9 31 99.2 31.3 99.4C31.9 99.8 32.8 99.5 33.1 98.9L34.5 96.5L35.9 99C36.1 99.4 36.6 99.7 37.1 99.7C37.3 99.7 37.6 99.6 37.8 99.5C38.4 99.1 38.7 98.3 38.3 97.7L36.9 95.2H39.7C40.4 95.2 41.1 94.6 41.1 93.8C41.1 93 40.4 92.5 39.7 92.5Z" fill="#00B8F1"/>
<path d="M81.7 92.5H78.9L80.3 90C80.7 89.4 80.5 88.5 79.8 88.2C79.1 87.8 78.3 88 77.9 88.7L76.5 91.1L75.1 88.7C74.7 88 73.9 87.8 73.3 88.2C72.9 88.4 72.7 88.7 72.6 89C72.5 89.3 72.6 89.7 72.7 90L74.1 92.4H71.4C70.6 92.5 70 93.1 70 93.8C70 94.5 70.6 95.2 71.4 95.2H74.2L72.8 97.6C72.6 97.9 72.6 98.3 72.7 98.6C72.8 98.9 73 99.2 73.3 99.4C73.9 99.8 74.8 99.5 75.1 98.9L76.5 96.5L77.9 99C78.1 99.4 78.6 99.7 79.1 99.7C79.3 99.7 79.6 99.6 79.8 99.5C80.4 99.1 80.7 98.3 80.3 97.7L78.9 95.2H81.7C82.4 95.2 83.1 94.6 83.1 93.8C83.1 93 82.4 92.5 81.7 92.5Z" fill="#00B8F1"/>
<path d="M24.7 83.5H21.9L23.3 81C23.7 80.4 23.5 79.5 22.8 79.2C22.1 78.8 21.3 79 20.9 79.7L19.5 82.1L18.1 79.7C17.7 79 16.9 78.8 16.3 79.2C15.9 79.4 15.7 79.7 15.6 80C15.5 80.3 15.6 80.7 15.7 81L17.1 83.4H14.4C13.6 83.5 13 84.1 13 84.8C13 85.5 13.6 86.2 14.4 86.2H17.2L15.8 88.6C15.6 88.9 15.6 89.3 15.7 89.6C15.8 89.9 16 90.2 16.3 90.4C16.9 90.8 17.8 90.5 18.1 89.9L19.5 87.5L20.9 90C21.1 90.4 21.6 90.7 22.1 90.7C22.3 90.7 22.6 90.6 22.8 90.5C23.4 90.1 23.7 89.3 23.3 88.7L21.9 86.2H24.7C25.4 86.2 26.1 85.6 26.1 84.8C26.1 84 25.4 83.5 24.7 83.5Z" fill="#00B8F1"/>
<path d="M94.7 83.5H91.9L93.3 81C93.7 80.4 93.5 79.5 92.8 79.2C92.1 78.8 91.3 79 90.9 79.7L89.5 82.1L88.1 79.7C87.7 79 86.9 78.8 86.3 79.2C85.9 79.4 85.7 79.7 85.6 80C85.5 80.3 85.6 80.7 85.7 81L87.1 83.4H84.4C83.6 83.5 83 84.1 83 84.8C83 85.5 83.6 86.2 84.4 86.2H87.2L85.8 88.6C85.6 88.9 85.6 89.3 85.7 89.6C85.8 89.9 86 90.2 86.3 90.4C86.9 90.8 87.8 90.5 88.1 89.9L89.5 87.5L90.9 90C91.1 90.4 91.6 90.7 92.1 90.7C92.3 90.7 92.6 90.6 92.8 90.5C93.4 90.1 93.7 89.3 93.3 88.7L91.9 86.2H94.7C95.4 86.2 96.1 85.6 96.1 84.8C96.1 84 95.4 83.5 94.7 83.5Z" fill="#00B8F1"/>
<path d="M66.7 83.5H63.9L65.3 81C65.7 80.4 65.5 79.5 64.8 79.2C64.1 78.8 63.3 79 62.9 79.7L61.5 82.1L60.1 79.7C59.7 79 58.9 78.8 58.3 79.2C57.9 79.4 57.7 79.7 57.6 80C57.5 80.3 57.6 80.7 57.7 81L59.1 83.4H56.4C55.6 83.5 55 84.1 55 84.8C55 85.5 55.6 86.2 56.4 86.2H59.2L57.8 88.6C57.6 88.9 57.6 89.3 57.7 89.6C57.8 89.9 58 90.2 58.3 90.4C58.9 90.8 59.8 90.5 60.1 89.9L61.5 87.5L62.9 90C63.1 90.4 63.6 90.7 64.1 90.7C64.3 90.7 64.6 90.6 64.8 90.5C65.4 90.1 65.7 89.3 65.3 88.7L63.9 86.2H66.7C67.4 86.2 68.1 85.6 68.1 84.8C68.1 84 67.4 83.5 66.7 83.5Z" fill="#00B8F1"/>
</g>
<defs>
<linearGradient id="paint0_linear_149_1438" x1="47.5" y1="38.5" x2="49.5" y2="71.1" gradientUnits="userSpaceOnUse">
<stop offset="0.484375" stop-color="white" stop-opacity="0"/>
<stop offset="1" stop-color="#B3B2B2"/>
</linearGradient>
<clipPath id="clip0_149_1438">
<rect width="100" height="100" fill="white"/>
</clipPath>
</defs>
</svg>
